symbols/de/ne3-normal-V.svg

<?xml version="1.0" encoding="UTF-8" standalone="no"?>
<svg
   width="6"
   height="24"
   viewBox="0 0 6 24"
   version="1.1"
   id="svg5"
   sodipodi:docname="ne3-normal-V.svg"
   inkscape:version="1.4.2 (ebf0e940d0, 2025-05-08)"
   xmlns:inkscape="http://www.inkscape.org/namespaces/inkscape"
   xmlns:sodipodi="http://sodipodi.sourceforge.net/DTD/sodipodi-0.dtd"
   xmlns="http://www.w3.org/2000/svg"
   xmlns:svg="http://www.w3.org/2000/svg">
  <defs
     id="defs5" />
  <sodipodi:namedview
     id="namedview5"
     pagecolor="#ffffff"
     bordercolor="#999999"
     borderopacity="1"
     inkscape:showpageshadow="0"
     inkscape:pageopacity="0"
     inkscape:pagecheckerboard="0"
     inkscape:deskcolor="#d1d1d1"
     inkscape:zoom="11.313709"
     inkscape:cx="0.88388347"
     inkscape:cy="17.677669"
     inkscape:window-width="1920"
     inkscape:window-height="1008"
     inkscape:window-x="1920"
     inkscape:window-y="0"
     inkscape:window-maximized="1"
     inkscape:current-layer="svg5" />
  <rect
     x="-0.6"
     y="-2.4"
     width="7.2"
     height="28.8"
     fill="rgb(0%, 0%, 0%)"
     fill-opacity="1"
     id="rect1" />
  <path
     fill-rule="nonzero"
     fill="#ffffff"
     fill-opacity="1"
     d="M 0.148,-0.5 H 5.851 V 0.03125 L 0.148,3.320312 Z m 0,0"
     id="path1"
     style="stroke-width:0.999989" />
  <path
     fill-rule="nonzero"
     fill="#ffffff"
     fill-opacity="1"
     d="m 0.148,14.687812 v 2.597656 L 5.851,13.996406 V 11.39875 Z m 0,0"
     id="path3"
     style="stroke-width:0.999989" />
  <path
     fill-rule="nonzero"
     fill="#ffffff"
     fill-opacity="1"
     d="m 0.148,10.000312 v 2.601562 L 5.851,9.312812 V 6.715156 Z m 0,0"
     id="path4"
     style="stroke-width:0.999989" />
  <path
     fill-rule="nonzero"
     fill="#ffffff"
     fill-opacity="1"
     d="M 0.148,5.328437 V 7.926093 L 5.851,4.640937 V 2.039374 Z m 0,0"
     id="path5"
     style="stroke-width:0.999989" />
  <path
     fill-rule="nonzero"
     fill="#ffffff"
     fill-opacity="1"
     d="M 5.851,24.582874 H 0.148 v -0.53125 l 5.703,-3.289062 z m 0,0"
     id="path6"
     style="stroke-width:0.999989" />
  <path
     fill-rule="nonzero"
     fill="#ffffff"
     fill-opacity="1"
     d="m 0.148,19.370624 v 2.597656 l 5.703,-3.289062 v -2.597656 z m 0,0"
     id="path7"
     style="stroke-width:0.999989" />
</svg>

<?xml version="1.0" encoding="UTF-8"?>
<svg xmlns="http://www.w3.org/2000/svg" xmlns:xlink="http://www.w3.org/1999/xlink" width="6" height="24" viewBox="0 0 6 24">
<rect x="-0.6" y="-2.4" width="7.2" height="28.8" fill="rgb(0%, 0%, 0%)" fill-opacity="1"/>
<path fill-rule="nonzero" fill="rgb(100%, 100%, 100%)" fill-opacity="1" d="M 0.148438 -0.5 L 5.851562 -0.5 L 5.851562 0.03125 L 0.148438 3.320312 Z M 0.148438 -0.5 "/>
<path fill-rule="nonzero" fill="rgb(100%, 100%, 100%)" fill-opacity="1" d="M 0.148438 14.6875 L 0.148438 17.285156 L 5.851562 13.996094 L 5.851562 11.398438 Z M 0.148438 14.6875 "/>
<path fill-rule="nonzero" fill="rgb(100%, 100%, 100%)" fill-opacity="1" d="M 0.148438 10 L 0.148438 12.601562 L 5.851562 9.3125 L 5.851562 6.714844 Z M 0.148438 10 "/>
<path fill-rule="nonzero" fill="rgb(100%, 100%, 100%)" fill-opacity="1" d="M 0.148438 5.328125 L 0.148438 7.925781 L 5.851562 4.640625 L 5.851562 2.039062 Z M 0.148438 5.328125 "/>
<path fill-rule="nonzero" fill="rgb(100%, 100%, 100%)" fill-opacity="1" d="M 5.851562 24.582031 L 0.148438 24.582031 L 0.148438 24.050781 L 5.851562 20.761719 Z M 5.851562 24.582031 "/>
<path fill-rule="nonzero" fill="rgb(100%, 100%, 100%)" fill-opacity="1" d="M 0.148438 19.371094 L 0.148438 21.96875 L 5.851562 18.679688 L 5.851562 16.082031 Z M 0.148438 19.371094 "/>
</svg>
